images/18177.svg

<?xml version="1.0" encoding="UTF-8"?>
<svg xmlns="http://www.w3.org/2000/svg" xmlns:xlink="http://www.w3.org/1999/xlink" width="300pt" height="300pt" viewBox="0 0 300 300" version="1.1">
<defs>
<g>
<symbol overflow="visible" id="glyph0-0">
<path style="stroke:none;" d="M 0.796875 2.828125 L 0.796875 -11.28125 L 8.796875 -11.28125 L 8.796875 2.828125 Z M 1.703125 1.9375 L 7.90625 1.9375 L 7.90625 -10.390625 L 1.703125 -10.390625 Z M 1.703125 1.9375 "/>
</symbol>
<symbol overflow="visible" id="glyph0-1">
<path style="stroke:none;" d="M 1.578125 -11.671875 L 3.703125 -11.671875 L 8.875 -1.90625 L 8.875 -11.671875 L 10.40625 -11.671875 L 10.40625 0 L 8.28125 0 L 3.109375 -9.765625 L 3.109375 0 L 1.578125 0 Z M 1.578125 -11.671875 "/>
</symbol>
<symbol overflow="visible" id="glyph0-2">
<path style="stroke:none;" d="M 10.3125 -10.765625 L 10.3125 -9.109375 C 9.78125 -9.597656 9.210938 -9.960938 8.609375 -10.203125 C 8.003906 -10.453125 7.363281 -10.578125 6.6875 -10.578125 C 5.351562 -10.578125 4.332031 -10.171875 3.625 -9.359375 C 2.914062 -8.546875 2.5625 -7.367188 2.5625 -5.828125 C 2.5625 -4.285156 2.914062 -3.109375 3.625 -2.296875 C 4.332031 -1.484375 5.351562 -1.078125 6.6875 -1.078125 C 7.363281 -1.078125 8.003906 -1.195312 8.609375 -1.4375 C 9.210938 -1.6875 9.78125 -2.054688 10.3125 -2.546875 L 10.3125 -0.90625 C 9.757812 -0.53125 9.171875 -0.242188 8.546875 -0.046875 C 7.929688 0.140625 7.28125 0.234375 6.59375 0.234375 C 4.832031 0.234375 3.441406 -0.304688 2.421875 -1.390625 C 1.410156 -2.472656 0.90625 -3.953125 0.90625 -5.828125 C 0.90625 -7.703125 1.410156 -9.175781 2.421875 -10.25 C 3.441406 -11.332031 4.832031 -11.875 6.59375 -11.875 C 7.289062 -11.875 7.945312 -11.78125 8.5625 -11.59375 C 9.1875 -11.414062 9.769531 -11.140625 10.3125 -10.765625 Z M 10.3125 -10.765625 "/>
</symbol>
<symbol overflow="visible" id="glyph0-3">
<path style="stroke:none;" d="M 1.515625 -12.15625 L 2.953125 -12.15625 L 2.953125 0 L 1.515625 0 Z M 1.515625 -12.15625 "/>
</symbol>
</g>
</defs>
<g id="surface36893">
<rect x="0" y="0" width="300" height="300" style="fill:rgb(100%,100%,100%);fill-opacity:1;stroke:none;"/>
<path style="fill:none;stroke-width:1.2;stroke-linecap:butt;stroke-linejoin:miter;stroke:rgb(0%,0%,0%);stroke-opacity:1;stroke-miterlimit:10;" d="M 150 140.4375 L 150 121.3125 "/>
<path style="fill:none;stroke-width:1.2;stroke-linecap:butt;stroke-linejoin:miter;stroke:rgb(0%,0%,100%);stroke-opacity:1;stroke-miterlimit:10;" d="M 150 121.3125 L 150 102.1875 "/>
<path style="fill:none;stroke-width:1.2;stroke-linecap:butt;stroke-linejoin:miter;stroke:rgb(0%,0%,0%);stroke-opacity:1;stroke-miterlimit:10;" d="M 159 136.613281 L 159 121.3125 "/>
<path style="fill:none;stroke-width:1.2;stroke-linecap:butt;stroke-linejoin:miter;stroke:rgb(0%,0%,100%);stroke-opacity:1;stroke-miterlimit:10;" d="M 159 121.3125 L 159 106.011719 "/>
<path style="fill:none;stroke-width:1.2;stroke-linecap:butt;stroke-linejoin:miter;stroke:rgb(0%,0%,0%);stroke-opacity:1;stroke-miterlimit:10;" d="M 141 136.613281 L 141 121.3125 "/>
<path style="fill:none;stroke-width:1.2;stroke-linecap:butt;stroke-linejoin:miter;stroke:rgb(0%,0%,100%);stroke-opacity:1;stroke-miterlimit:10;" d="M 141 121.3125 L 141 106.011719 "/>
<path style="fill:none;stroke-width:1.2;stroke-linecap:butt;stroke-linejoin:miter;stroke:rgb(0%,0%,0%);stroke-opacity:1;stroke-miterlimit:10;" d="M 150 140.4375 L 150 178.6875 "/>
<path style=" stroke:none;fill-rule:nonzero;fill:rgb(100%,100%,100%);fill-opacity:1;" d="M 144 92.6875 L 156 92.6875 L 156 111.6875 L 144 111.6875 Z M 144 92.6875 "/>
<g style="fill:rgb(0%,0%,100%);fill-opacity:1;">
  <use xlink:href="#glyph0-1" x="144" y="107.539062"/>
</g>
<path style="fill:none;stroke-width:1.2;stroke-linecap:butt;stroke-linejoin:miter;stroke:rgb(0%,0%,0%);stroke-opacity:1;stroke-miterlimit:10;" d="M 150 178.6875 L 166.5625 188.25 "/>
<path style="fill:none;stroke-width:1.2;stroke-linecap:butt;stroke-linejoin:miter;stroke:rgb(0%,80%,0%);stroke-opacity:1;stroke-miterlimit:10;" d="M 166.5625 188.25 L 183.125 197.8125 "/>
<path style="fill:none;stroke-width:1.2;stroke-linecap:butt;stroke-linejoin:miter;stroke:rgb(0%,0%,0%);stroke-opacity:1;stroke-miterlimit:10;" d="M 150 178.6875 L 133.4375 188.25 "/>
<path style="fill:none;stroke-width:1.2;stroke-linecap:butt;stroke-linejoin:miter;stroke:rgb(0%,80%,0%);stroke-opacity:1;stroke-miterlimit:10;" d="M 133.4375 188.25 L 116.875 197.8125 "/>
<path style=" stroke:none;fill-rule:nonzero;fill:rgb(100%,100%,100%);fill-opacity:1;" d="M 175.125 188.3125 L 191.125 188.3125 L 191.125 207.3125 L 175.125 207.3125 Z M 175.125 188.3125 "/>
<g style="fill:rgb(0%,80%,0%);fill-opacity:1;">
  <use xlink:href="#glyph0-2" x="175.125" y="203.164062"/>
  <use xlink:href="#glyph0-3" x="186.296875" y="203.164062"/>
</g>
<path style=" stroke:none;fill-rule:nonzero;fill:rgb(100%,100%,100%);fill-opacity:1;" d="M 100.875 188.3125 L 116.875 188.3125 L 116.875 207.3125 L 100.875 207.3125 Z M 100.875 188.3125 "/>
<g style="fill:rgb(0%,80%,0%);fill-opacity:1;">
  <use xlink:href="#glyph0-2" x="100.875" y="203.164062"/>
  <use xlink:href="#glyph0-3" x="112.046875" y="203.164062"/>
</g>
</g>
</svg>

<svg xmlns="http://www.w3.org/2000/svg" xmlns:xlink="http://www.w3.org/1999/xlink" width="300pt" height="300pt" viewBox="0 0 300 300"><defs><symbol overflow="visible"><path d="M.797 2.828v-14.11h8V2.83zm.906-.89h6.203v-12.33H1.703zm0 0"/></symbol><symbol overflow="visible" id="a"><path d="M1.578-11.672h2.125l5.172 9.766v-9.766h1.53V0H8.282L3.11-9.766V0H1.577zm0 0"/></symbol><symbol overflow="visible" id="b"><path d="M10.313-10.766v1.657c-.532-.488-1.102-.85-1.704-1.093-.606-.25-1.247-.375-1.922-.375-1.336 0-2.356.406-3.063 1.22-.71.81-1.063 1.99-1.063 3.53 0 1.543.352 2.72 1.063 3.53.707.814 1.727 1.22 3.063 1.22.675 0 1.316-.117 1.92-.36.603-.25 1.173-.617 1.704-1.11v1.642c-.554.375-1.14.664-1.765.86-.617.187-1.266.28-1.953.28-1.762 0-3.153-.54-4.172-1.625C1.41-2.474.906-3.954.906-5.83c0-1.875.504-3.348 1.516-4.422 1.02-1.082 2.41-1.625 4.172-1.625.695 0 1.35.094 1.968.28.626.18 1.208.454 1.75.83zm0 0"/></symbol><symbol overflow="visible" id="c"><path d="M1.516-12.156h1.437V0H1.516zm0 0"/></symbol></defs><g><path fill="#fff" d="M0 0h300v300H0z"/><path d="M150 140.438v-19.125" stroke-width="1.2" stroke="#000" stroke-miterlimit="10" fill="none"/><path d="M150 121.313v-19.126" stroke-width="1.2" stroke="#00f" stroke-miterlimit="10" fill="none"/><path d="M159 136.613v-15.3" stroke-width="1.2" stroke="#000" stroke-miterlimit="10" fill="none"/><path d="M159 121.313v-15.3" stroke-width="1.2" stroke="#00f" stroke-miterlimit="10" fill="none"/><path d="M141 136.613v-15.3" stroke-width="1.2" stroke="#000" stroke-miterlimit="10" fill="none"/><path d="M141 121.313v-15.3" stroke-width="1.2" stroke="#00f" stroke-miterlimit="10" fill="none"/><path d="M150 140.438v38.25" stroke-width="1.2" stroke="#000" stroke-miterlimit="10" fill="none"/><path d="M144 92.688h12v19h-12zm0 0" fill="#fff"/><use xlink:href="#a" x="144" y="107.539" fill="#00f"/><path d="M150 178.688l16.563 9.562" stroke-width="1.2" stroke="#000" stroke-miterlimit="10" fill="none"/><path d="M166.563 188.25l16.562 9.563" stroke-width="1.2" stroke="#0c0" stroke-miterlimit="10" fill="none"/><path d="M150 178.688l-16.563 9.562" stroke-width="1.2" stroke="#000" stroke-miterlimit="10" fill="none"/><path d="M133.438 188.25l-16.563 9.563" stroke-width="1.2" stroke="#0c0" stroke-miterlimit="10" fill="none"/><path d="M175.125 188.313h16v19h-16zm0 0" fill="#fff"/><g fill="#0c0"><use xlink:href="#b" x="175.125" y="203.164"/><use xlink:href="#c" x="186.297" y="203.164"/></g><path d="M100.875 188.313h16v19h-16zm0 0" fill="#fff"/><g fill="#0c0"><use xlink:href="#b" x="100.875" y="203.164"/><use xlink:href="#c" x="112.047" y="203.164"/></g></g></svg>
